X: 21383
M: 6/8
L: 1/8
K: D
V: 1 name="3"
d2e f2g | a3 gef | d2d f2f | e3 AAA |\
d2e f2g | a3 gef | d2d f2e | d3- dz H|]
a |\
eee e2f | g2e f2d | e2f g2f | efd f2z |\
eee e2f | g2e f2d | cba gec | d2"^D.C."z |]


